src/assets/svg/icons/fa/nuevos/classic/thin/plane-engines classic thin.svg

<svg xmlns="http://www.w3.org/2000/svg" viewBox="0 0 576 512"><path d="M542.7 209.7C559.8 220.2 576 236.2 576 256C576 276.2 559.8 292.3 542.7 302.7C525.1 313.3 503.4 320 486.8 320H366.7L331.2 384.2C342.1 385.8 352 395.8 352 408V424C352 437.3 341.3 448 328 448H296L272.1 491.3C265.1 504.1 251.7 512 237.1 512H189C173.2 512 161.7 496.9 165.9 481.6L210.5 320H116L75.2 374.4C70.67 380.4 63.55 384 56 384H21.91C9.809 384 .0003 374.2 .0003 362.1C.0003 359.9 .3267 357.7 .969 355.6L22.25 286.5C9.345 282.4 0 270.3 0 256C0 241.7 9.344 229.6 22.25 225.5L.969 156.4C.3267 154.3 0 152.1 0 149.9C0 137.8 9.809 128 21.91 128H56C63.55 128 70.67 131.6 75.2 137.6L116 192H210.5L165.9 30.38C161.7 15.1 173.2 0 189 0H237.1C251.7 0 265.1 7.921 272.1 20.68L296 64H328C341.3 64 352 74.75 352 88V104C352 116.2 342.1 126.2 331.2 127.8L366.7 192H486.8C503.4 192 525.2 198.1 542.7 209.7V209.7zM26.96 271.2L31.63 256L26.96 240.8C20.59 242.9 15.1 248.9 15.1 256C15.1 263.1 20.59 269.1 26.96 271.2zM328 432C332.4 432 336 428.4 336 424V408C336 403.6 332.4 400 328 400H322.5L304.9 432H328zM322.5 112H328C332.4 112 336 108.4 336 104V88C336 83.58 332.4 80 328 80H304.9L322.5 112zM111.1 208C109.5 208 107.1 206.8 105.6 204.8L62.4 147.2C60.89 145.2 58.52 144 55.1 144H21.91C18.65 144 15.1 146.6 15.1 149.9C15.1 150.5 16.09 151.1 16.26 151.6L47.65 253.6C48.12 255.2 48.12 256.8 47.65 258.4L16.26 360.4C16.09 360.9 16 361.5 16 362.1C16 365.4 18.65 368 21.91 368H56C58.52 368 60.89 366.8 62.4 364.8L105.6 307.2C107.1 305.2 109.5 303.1 112 303.1H486.8C499.9 303.1 518.7 298.4 534.4 288.1C550.4 279.2 560 267.3 560 255.1C560 245.1 550.4 233.2 534.3 223.3C518.7 213.7 499.8 207.1 486.8 207.1L111.1 208zM348.4 192L258.1 28.41C253.9 20.75 245.8 16 237.1 16H189C183.7 16 179.9 21.03 181.3 26.13L227.1 192H348.4zM181.3 485.9C179.9 490.1 183.7 496 189 496H237.1C245.8 496 253.9 491.2 258.1 483.6L348.4 320H227.1L181.3 485.9zM8.615 358L16.26 360.4L8.615 358zM16.26 151.6L8.615 153.1z"/></svg>

<svg xmlns="http://www.w3.org/2000/svg" viewBox="0 0 576 512"><!--! Font Awesome Pro 6.4.0 by @fontawesome - https://fontawesome.com License - https://fontawesome.com/license (Commercial License) Copyright 2023 Fonticons, Inc. --><path d="M542.7 209.7C559.8 220.2 576 236.2 576 256c0 20.2-16.2 36.3-33.3 46.7c-17.6 10.7-39.3 17.3-55.8 17.3L368 320l-1.3 0-35.4 64.2C343 385.8 352 395.8 352 408v16c0 13.3-10.7 24-24 24H296l-23.9 43.3c-7 12.8-20.5 20.7-35 20.7L189 512c-15.9 0-27.4-15.1-23.1-30.4L210.5 320 192 320H116L75.2 374.4c-4.5 6-11.6 9.6-19.2 9.6H21.9C9.8 384 0 374.2 0 362.1c0-2.2 .3-4.4 1-6.4l21.3-69.2C9.3 282.4 0 270.3 0 256s9.3-26.4 22.2-30.5L1 156.4c-.6-2.1-1-4.3-1-6.4C0 137.8 9.8 128 21.9 128L56 128c7.6 0 14.7 3.6 19.2 9.6L116 192l76 0h18.5L165.9 30.4C161.7 15.1 173.2 0 189 0h48.1c14.6 0 28 7.9 35 20.7L296 64h32c13.3 0 24 10.7 24 24v16c0 12.2-9 22.2-20.8 23.8L366.7 192l1.3 0H486.8c16.6 0 38.3 7 55.9 17.7zM27 271.2L31.6 256 27 240.8c-6.4 2.1-11 8.1-11 15.2s4.6 13.1 11 15.2zM304.9 432H328c4.4 0 8-3.6 8-8V408c0-4.4-3.6-8-8-8h-5.5l-17.7 32zm17.7-320H328c4.4 0 8-3.6 8-8V88c0-4.4-3.6-8-8-8H304.9l17.7 32zM368 208l-6.1 0-141 0H192l-80 0c-2.5 0-4.9-1.2-6.4-3.2L62.4 147.2c-1.5-2-3.9-3.2-6.4-3.2l-34.1 0c-3.3 0-5.9 2.6-5.9 5.9c0 .6 .1 1.2 .3 1.7L8.6 154l7.6-2.4 31.4 102c.5 1.5 .5 3.2 0 4.7l-31.4 102L8.6 358l7.6 2.4c-.2 .6-.3 1.1-.3 1.7c0 3.3 2.6 5.9 5.9 5.9H56c2.5 0 4.9-1.2 6.4-3.2l43.2-57.6c1.5-2 3.9-3.2 6.4-3.2h80 29H361.9l0 0 6.1 0 118.8 0c13 0 31.9-5.6 47.5-15c16-9.7 25.6-21.6 25.6-33c0-10.9-9.6-22.8-25.7-32.7c-15.7-9.6-34.5-15.3-47.5-15.3H368zm-19.6-16L258.1 28.4c-4.2-7.7-12.3-12.4-21-12.4L189 16c-5.3 0-9.1 5-7.7 10.1L227.1 192H348.4zM227.1 320L181.3 485.9c-1.4 5.1 2.4 10.1 7.7 10.1l48.1 0c8.7 0 16.8-4.8 21-12.4L348.4 320H227.1z"/></svg>
